X:1
T:Standin In The Need of Prayer
T:Room enough
T:Copyright 1881 by The Riverside Press
T:Rodeheaver's Plantation Melodies
T:Rodeheaver's Plantation Melodies
Z:Rodeheaver's Plantation Melodies
%%score [ 1 2 3 4 ]
L:1/8
Q:1/4=70
M:2/4
K:Bb
V:1 treble nm="Soprano" snm="S."
V:2 treble nm="Alto" snm="A."
V:3 bass nm="Tenor" snm="T."
V:4 bass nm="Bass" snm="B."
V:1
 F | B<d d2 | ed c2 | A<c c2 | dc B2 | B<d d2 | ed c2 | c2 dc | B3 ||"^Chorus" d | FF FF | B<d B2 | %12
w: Oh|bro- thers *||||||||For|||
 G<G BB/G/ | FF F2 | FF FF | B<d B2 | c2 dc | B3 |] %18
w: ||||||
V:2
 z | z2 F2 | GF E2 | C<E E2 | FE D2 | E<F F2 | GF E2 | E2 FE | D3 || z | DD DD | D<F D2 | %12
w: |don't|stay a- way.|Bro- thers don't|stay a- way|Bro- thers don't|stay a- way.|Don't stay a-|way.||my Lord says there's|room e- nough,|
 E<E GG/E/ | DD D2 | DD DD | D<F D2 | E2 FE | D3 |] %18
w: room e- nough in the|Heav'ns for you.|My Lord says there's|room e- nough.|Don't stay a-|way.|
V:3
 z | z2 B,2 | B,B, A,2 | A,<A, A,2 | B,B, B,2 | B,<B, B,2 | B,B, A,2 | A,2 A,A, | B,3 || z | %10
 B,B, B,B, | B,<B, B,2 | B,<B, B,B,/B,/ | B,B, B,2 | B,B, B,B, | B,<B, B,2 | A,2 A,A, | B,3 |] %18
V:4
 z | z2 B,,2 | B,,B,, F,2 | F,<F, F,2 | B,,B,, B,,2 | B,,<B,, B,,2 | B,,B,, F,2 | F,2 F,F, | %8
 B,,3 || z | B,,B,, B,,B,, | B,,<B,, B,,2 | E,<E, E,E,/E,/ | B,,B,, B,,2 | B,,B,, B,,B,, | %15
 B,,<B,, B,,2 | F,2 F,F, | B,,3 |] %18

